X: 124
T: Ay Gız Adın Amandır
C: (Anonim)
O: Turkey
F: http://compmusic.upf.edu/node/140
N: segah--turku--semai--ay_giz--kars
N: makam= segah
N: form= turku
N: usul= semai = 3/4
M: 3/4
L: 1/16
K: C _1/4B _1/4e ^f 
Q: 1/4=216
%%MIDI tuningsystem comma53
z24  | d2c2d2d2 c2B2c2c2 e2d6  | c2d2d2d2 c2B2c4 d2d4z2  | 
w:  |  Ay  *  gız_ a dın_ *  a man *  dır    |  SAZ  | 
d2c2d2d2 c2B2c2c2 e2d6  | c2d2d2d2 c2B2c4 d2d4z2  | \
w:  Hoş  *  ba kı şın  *  ya man *  dır    |  SAZ  | 
=f2f2e2f2 f2e2e2e2 d2e3dc2  | 
w:  Dü nen  *  ge ce  *  söz  ver *  di  ba lam    | 
d2d2c2e2 {=f}d2{e}c2c2c2 B2B4z2  | \
w:  Bu  ge *  ce *  ki  *  *  ta mam *  dır    | 
=f2f2e2f2 f2e2e2e2 d2e3dc2  | 
w:  Dü nen  *  ge ce  *  söz  ver *  di  ba lam    | 
d2d2c2e2 {=f}d2{e}c2c2c2 B2B4z2  | \
w:  Bu  ge *  ce *  ki  *  *  ta mam *  dır    | 
B2^A2B2c2 c2B2B2A2 B2c2c2B2  | 
w:  Ga şın  *  gö zün  *  şi rin  *  sö zün    | 
d3cded2 d2c2B4 A2G6  | B2^A2B2c2 c2B2B2A2 B2c2c2B2  | 
w:  Al *  dı  *  ya zık  *  câ nı mı    |  Ga şın  *  gö zün  *  şi rin  *  sö zün    | 
d3cded2 d2c2B4 A2G6  | G4G2B2 c2d2d12  | \
w:  Al *  dı  *  ya zık  *  câ nı mı    |  Men  se ne  hey *  rân    | 
G4G2B2 c2d2d8-d2g2  | 
w:  Sen  ca na  gur *  ban    | 
z12  | g3=f e2g2 f2z2  | =f3e d2f2 e2z2  | \
w:  |  Ay  ha nım  ha nım    |  Sen  me nim  ca nım    | 
e3d c2e2 d2z2  | d3c B2d2 {e}d2c2  | 
w:  Men  se ni  a lım    |  Dağ la ra  ga *  çım   | 
c2c2 B2B4z2  | g3=f e2g2 f2z2  | =f3e d2f2 e2z2  | \
w:  *  bu  ge ce    |  Ay  ha nım  ha nım    |  Sen  me nim  ca nım    | 
e3d c2e2 d2z2  | 
w:  Men  se ni  a lım    | 
d3c B2d2 {e}d2c2  | c2c2 B2B4z2  | z24  | \
w:  Dağ la ra  ga *  çım   |  *  bu  ge ce    |  | 
d2c2d2d2 c2B2c2c2 e2d6  | 
w:  Ay  *  gız_ a dın_ *  a man *  dır    | 
c2d2d2d2 c2B2c4 d2d4z2  | d2c2d2d2 c2B2c2c2 e2d6  | \
w:  SAZ  |  Hoş  *  ba kı şın  *  ya man *  dır    | 
c2d2d2d2 c2B2c4 d2d4z2  | 
w:  SAZ  | 
=f2f2e2f2 f2e2e2e2 d2e3dc2  | d2d2c2e2 {=f}d2{e}c2c2c2 B2B4z2  | 
w:  Dü nen  *  ge ce  *  söz  ver *  di  ba lam    |  Bu  ge *  ce *  ki  *  *  ta mam *  dır    | 
=f2f2e2f2 f2e2e2e2 d2e3dc2  | d2d2c2e2 {=f}d2{e}c2c2c2 B2B4z2  | 
w:  Dü nen  *  ge ce  *  söz  ver *  di  ba lam    |  Bu  ge *  ce *  ki  *  *  ta mam *  dır    | 
B2^A2B2c2 c2B2B2A2 B2c2c2B2  | d3cded2 d2c2B4 A2G6  | 
w:  Ga şın  *  gö zün  *  şi rin  *  sö zün    |  Al *  dı  *  ya zık  *  câ nı mı    | 
B2^A2B2c2 c2B2B2A2 B2c2c2B2  | d3cded2 d2c2B4 A2G6  | 
w:  Ga şın  *  gö zün  *  şi rin  *  sö zün    |  Al *  dı  *  ya zık  *  câ nı mı    | 
G4G2B2 c2d2d12  | G4G2B2 c2d2d8-d2g2  | z12  | \
w:  Men  se ne  hey *  rân    |  Sen  ca na  gur *  ban    |  | 
g3=f e2g2 f2z2  | 
w:  Ay  ha nım  ha nım    | 
=f3e d2f2 e2z2  | e3d c2e2 d2z2  | d3c B2d2 {e}d2c2  | \
w:  Sen  me nim  ca nım    |  Men  se ni  a lım    |  Dağ la ra  ga *  çım   | 
c2c2 B2B4z2  | 
w:  *  bu  ge ce    | 
g3=f e2g2 f2z2  | =f3e d2f2 e2z2  | e3d c2e2 d2z2  | \
w:  Ay  ha nım  ha nım    |  Sen  me nim  ca nım    |  Men  se ni  a lım    | 
d3c B2d2 {e}d2c2  | 
w:  Dağ la ra  ga *  çım   | 
c2c2 B2B4z2  | |


